Obsidian-SemiLight/mimetypes/32/application-x-tar.svg

<svg height="32" width="32" xmlns="http://www.w3.org/2000/svg" xmlns:xlink="http://www.w3.org/1999/xlink"><linearGradient id="a"><stop offset="0" stop-color="#818181"/><stop offset=".2" stop-color="#f9f9f9"/><stop offset="1" stop-color="#dcdcdc" stop-opacity="0"/></linearGradient><radialGradient id="b" cx="90" cy="90" gradientTransform="matrix(0 -1.085034 2 0 -90 187.65306)" gradientUnits="userSpaceOnUse" r="42"><stop offset="0" stop-color="#b4b4b4"/><stop offset="1" stop-color="#dcdcdc"/></radialGradient><linearGradient id="c" gradientUnits="userSpaceOnUse" x1="38.748035" x2="38.748035" y1="65.59034" y2="5.833157"><stop offset="0" stop-color="#dcdcdc"/><stop offset="1" stop-color="#fafafa"/></linearGradient><linearGradient id="d" gradientUnits="userSpaceOnUse" x1="19.035713" x2="87.5" y1="74" y2="27.428572"><stop offset="0" stop-color="#fff"/><stop offset="1" stop-color="#fff" stop-opacity="0"/></linearGradient><linearGradient id="e" gradientUnits="userSpaceOnUse" x1="6" x2="24" xlink:href="#a" y1="73" y2="73"/><linearGradient id="f" gradientTransform="matrix(-1 0 0 1 96 0)" gradientUnits="userSpaceOnUse" x1="6" x2="24" xlink:href="#a" y1="73" y2="73"/><linearGradient id="g" gradientTransform="matrix(1.0058652 0 0 .994169 100 0)" gradientUnits="userSpaceOnUse" x1="45.447727" x2="45.447727" y1="92.539597" y2="7.01654"><stop offset="0"/><stop offset="1" stop-opacity=".588235"/></linearGradient><linearGradient id="h" gradientTransform="matrix(1.0238095 0 0 1.0119048 -1.142857 -98.071429)" gradientUnits="userSpaceOnUse" x1="32.251034" x2="32.251034" xlink:href="#g" y1="6.131708" y2="90.238609"/><linearGradient id="i" gradientTransform="translate(0 -97)" gradientUnits="userSpaceOnUse" x1="32.251034" x2="32.251034" xlink:href="#g" y1="6.131708" y2="90.238609"/><g transform="matrix(.32944406 0 0 .32944406 .351407 .192519)"><g><g fill="url(#h)"><path d="m12-95.03125c-5.5110903 0-10.03125 4.52016-10.03125 10.03125v71c0 5.5110902 4.5201598 10.03125 10.03125 10.03125h72c5.51109 0 10.03125-4.5201597 10.03125-10.03125v-71c0-5.51109-4.52016-10.03125-10.03125-10.03125z" opacity=".08" transform="scale(1 -1)"/><path d="m12-94.03125c-4.971633 0-9.03125 4.059617-9.03125 9.03125v71c0 4.9716329 4.0596171 9.03125 9.03125 9.03125h72c4.971633 0 9.03125-4.059617 9.03125-9.03125v-71c0-4.971633-4.059617-9.03125-9.03125-9.03125z" opacity=".1" transform="scale(1 -1)"/><path d="m12-93c-4.4091333 0-8 3.590867-8 8v71c0 4.4091333 3.5908667 8 8 8h72c4.409133 0 8-3.5908667 8-8v-71c0-4.409133-3.590867-8-8-8z" opacity=".2" transform="scale(1 -1)"/><rect height="85" opacity=".3" rx="7" transform="scale(1 -1)" width="86" x="5" y="-92"/></g><rect fill="url(#i)" height="84" opacity=".45" rx="6" transform="scale(1 -1)" width="84" x="6" y="-91"/></g><g><rect fill="url(#b)" height="84" rx="6" width="84" x="6" y="6"/><path d="m6 56v28c0 3.324 2.676 6 6 6h12v-34z" fill="url(#e)"/><path d="m90 56v28c0 3.324-2.676 6-6 6h-12v-34z" fill="url(#f)"/><path d="m6 82v2c0 3.324 2.676 6 6 6h72c3.324 0 6-2.676 6-6v-2c0 3.324-2.676 6-6 6h-72c-3.324 0-6-2.676-6-6z" opacity=".15"/><path d="m6 78v2c0 3.324 2.676 6 6 6h72c3.324 0 6-2.676 6-6v-2c0 3.324-2.676 6-6 6h-72c-3.324 0-6-2.676-6-6z" fill="#fff" opacity=".8"/><path d="m6 76v2c0 3.324 2.676 6 6 6h72c3.324 0 6-2.676 6-6v-2c0 3.324-2.676 6-6 6h-72c-3.324 0-6-2.676-6-6z" opacity=".15"/><path d="m6 72v2c0 3.324 2.676 6 6 6h72c3.324 0 6-2.676 6-6v-2c0 3.324-2.676 6-6 6h-72c-3.324 0-6-2.676-6-6z" fill="#fff" opacity=".8"/><path d="m6 70v2c0 3.324 2.676 6 6 6h72c3.324 0 6-2.676 6-6v-2c0 3.324-2.676 6-6 6h-72c-3.324 0-6-2.676-6-6z" opacity=".15"/><rect fill="url(#c)" height="68" rx="6" width="84" x="6" y="6"/><path d="m12 6c-3.324 0-6 2.676-6 6v56c0 3.324 2.676 6 6 6h72c3.324 0 6-2.676 6-6v-56c0-3.324-2.676-6-6-6zm0 2h72c2.245802 0 4 1.7541975 4 4v56c0 2.245802-1.754198 4-4 4h-72c-2.2458025 0-4-1.754198-4-4v-56c0-2.2458025 1.7541975-4 4-4z" fill="url(#d)"/></g></g></svg>

<?xml version="1.0" encoding="UTF-8" standalone="no"?>
<svg
   xmlns:dc="http://purl.org/dc/elements/1.1/"
   xmlns:cc="http://creativecommons.org/ns#"
   xmlns:rdf="http://www.w3.org/1999/02/22-rdf-syntax-ns#"
   xmlns:svg="http://www.w3.org/2000/svg"
   xmlns="http://www.w3.org/2000/svg"
   xmlns:xlink="http://www.w3.org/1999/xlink"
   version="1.0"
   width="32"
   height="32"
   id="svg2408">
  <defs
     id="defs2410">
    <linearGradient
       id="linearGradient3236">
      <stop
         id="stop3238"
         style="stop-color:#818181;stop-opacity:1"
         offset="0" />
      <stop
         id="stop3242"
         style="stop-color:#f9f9f9;stop-opacity:1"
         offset="0.2" />
      <stop
         id="stop3240"
         style="stop-color:#dcdcdc;stop-opacity:0"
         offset="1" />
    </linearGradient>
    <linearGradient
       id="linearGradient3199">
      <stop
         id="stop3201"
         style="stop-color:#dcdcdc;stop-opacity:1"
         offset="0" />
      <stop
         id="stop3203"
         style="stop-color:#fafafa;stop-opacity:1"
         offset="1" />
    </linearGradient>
    <linearGradient
       id="linearGradient3210">
      <stop
         id="stop3212"
         style="stop-color:#ffffff;stop-opacity:0.39024389"
         offset="0" />
      <stop
         id="stop3214"
         style="stop-color:#000000;stop-opacity:0.2682927"
         offset="1" />
    </linearGradient>
    <linearGradient
       id="linearGradient3174">
      <stop
         id="stop3176"
         style="stop-color:#c30000;stop-opacity:1"
         offset="0" />
      <stop
         id="stop3178"
         style="stop-color:#f12300;stop-opacity:1"
         offset="1" />
    </linearGradient>
    <linearGradient
       x1="45.447727"
       y1="92.539597"
       x2="45.447727"
       y2="7.0165396"
       id="ButtonShadow"
       gradientUnits="userSpaceOnUse"
       gradientTransform="scale(1.0058652,0.994169)">
      <stop
         id="stop3750"
         style="stop-color:#000000;stop-opacity:1"
         offset="0" />
      <stop
         id="stop3752"
         style="stop-color:#000000;stop-opacity:0.58823532"
         offset="1" />
    </linearGradient>
    <linearGradient
       id="linearGradient3737">
      <stop
         id="stop3739"
         style="stop-color:#ffffff;stop-opacity:1"
         offset="0" />
      <stop
         id="stop3741"
         style="stop-color:#ffffff;stop-opacity:0"
         offset="1" />
    </linearGradient>
    <linearGradient
       id="linearGradient3700">
      <stop
         id="stop3702"
         style="stop-color:#b4b4b4;stop-opacity:1"
         offset="0" />
      <stop
         id="stop3704"
         style="stop-color:#dcdcdc;stop-opacity:1"
         offset="1" />
    </linearGradient>
    <filter
       id="filter3174"
       style="color-interpolation-filters:sRGB">
      <feGaussianBlur
         id="feGaussianBlur3176"
         stdDeviation="1.71" />
    </filter>
    <linearGradient
       x1="48"
       y1="84"
       x2="48"
       y2="12"
       id="linearGradient3180"
       xlink:href="#linearGradient3174"
       gradientUnits="userSpaceOnUse" />
    <linearGradient
       x1="12"
       y1="48"
       x2="84"
       y2="48"
       id="linearGradient3216"
       xlink:href="#linearGradient3210"
       gradientUnits="userSpaceOnUse"
       gradientTransform="rotate(90,48,48)" />
    <radialGradient
       cx="90"
       cy="90"
       r="42"
       fx="90"
       fy="90"
       id="radialGradient3197"
       xlink:href="#linearGradient3700"
       gradientUnits="userSpaceOnUse"
       gradientTransform="matrix(0,-1.085034,2,0,-90,187.65306)" />
    <linearGradient
       x1="38.748035"
       y1="65.59034"
       x2="38.748035"
       y2="5.8331571"
       id="linearGradient3205"
       xlink:href="#linearGradient3199"
       gradientUnits="userSpaceOnUse" />
    <linearGradient
       x1="19.035713"
       y1="74"
       x2="87.5"
       y2="27.428572"
       id="linearGradient3220"
       xlink:href="#linearGradient3737"
       gradientUnits="userSpaceOnUse" />
    <linearGradient
       x1="6"
       y1="73"
       x2="24"
       y2="73"
       id="linearGradient3234"
       xlink:href="#linearGradient3236"
       gradientUnits="userSpaceOnUse" />
    <linearGradient
       x1="6"
       y1="73"
       x2="24"
       y2="73"
       id="linearGradient3246"
       xlink:href="#linearGradient3236"
       gradientUnits="userSpaceOnUse"
       gradientTransform="matrix(-1,0,0,1,96,0)" />
    <linearGradient
       x1="45.447727"
       y1="92.539597"
       x2="45.447727"
       y2="7.0165396"
       id="ButtonShadow-0"
       gradientUnits="userSpaceOnUse"
       gradientTransform="matrix(1.0058652,0,0,0.994169,100,0)">
      <stop
         id="stop3750-8"
         style="stop-color:#000000;stop-opacity:1"
         offset="0" />
      <stop
         id="stop3752-5"
         style="stop-color:#000000;stop-opacity:0.58823532"
         offset="1" />
    </linearGradient>
    <linearGradient
       x1="32.251034"
       y1="6.1317081"
       x2="32.251034"
       y2="90.238609"
       id="linearGradient3780"
       xlink:href="#ButtonShadow-0"
       gradientUnits="userSpaceOnUse"
       gradientTransform="matrix(1.0238095,0,0,1.0119048,-1.1428571,-98.071429)" />
    <linearGradient
       x1="32.251034"
       y1="6.1317081"
       x2="32.251034"
       y2="90.238609"
       id="linearGradient3772"
       xlink:href="#ButtonShadow-0"
       gradientUnits="userSpaceOnUse"
       gradientTransform="matrix(1.0238095,0,0,1.0119048,-1.1428571,-98.071429)" />
    <linearGradient
       x1="32.251034"
       y1="6.1317081"
       x2="32.251034"
       y2="90.238609"
       id="linearGradient3725"
       xlink:href="#ButtonShadow-0"
       gradientUnits="userSpaceOnUse"
       gradientTransform="matrix(1.0238095,0,0,1.0119048,-1.1428571,-98.071429)" />
    <linearGradient
       x1="32.251034"
       y1="6.1317081"
       x2="32.251034"
       y2="90.238609"
       id="linearGradient3721"
       xlink:href="#ButtonShadow-0"
       gradientUnits="userSpaceOnUse"
       gradientTransform="translate(0,-97)" />
    <linearGradient
       x1="32.251034"
       y1="6.1317081"
       x2="32.251034"
       y2="90.238609"
       id="linearGradient3760"
       xlink:href="#ButtonShadow-0"
       gradientUnits="userSpaceOnUse"
       gradientTransform="matrix(1.0238095,0,0,1.0119048,-1.1428571,-98.071429)" />
  </defs>
  <metadata
     id="metadata2413">
    <rdf:RDF>
      <cc:Work
         rdf:about="">
        <dc:format>image/svg+xml</dc:format>
        <dc:type
           rdf:resource="http://purl.org/dc/dcmitype/StillImage" />
        <dc:title></dc:title>
      </cc:Work>
    </rdf:RDF>
  </metadata>
  <g
     id="layer2"
     style="display:none"
     transform="translate(0,-64)">
    <rect
       width="86"
       height="85"
       rx="6"
       ry="6"
       x="5"
       y="7"
       id="rect3745"
       style="opacity:0.9;fill:url(#ButtonShadow);fill-opacity:1;fill-rule:nonzero;stroke:none;filter:url(#filter3174)" />
  </g>
  <g
     id="layer6"
     style="display:inline"
     transform="matrix(0.32944406,0,0,0.32944406,0.35140701,0.19251917)">
    <path
       d="m 12,-95.03125 c -5.5110903,0 -10.03125,4.52016 -10.03125,10.03125 v 71 c 0,5.5110902 4.5201598,10.03125 10.03125,10.03125 h 72 c 5.51109,0 10.03125,-4.5201597 10.03125,-10.03125 v -71 c 0,-5.51109 -4.52016,-10.03125 -10.03125,-10.03125 z"
       transform="scale(1,-1)"
       id="path3786"
       style="display:inline;opacity:0.07999998;fill:url(#linearGradient3760);fill-opacity:1;fill-rule:nonzero;stroke:none" />
    <path
       d="m 12,-94.03125 c -4.971633,0 -9.03125,4.059617 -9.03125,9.03125 v 71 c 0,4.9716329 4.0596171,9.03125 9.03125,9.03125 h 72 c 4.971633,0 9.03125,-4.059617 9.03125,-9.03125 v -71 c 0,-4.971633 -4.059617,-9.03125 -9.03125,-9.03125 z"
       transform="scale(1,-1)"
       id="path3778"
       style="display:inline;opacity:0.1;fill:url(#linearGradient3780);fill-opacity:1;fill-rule:nonzero;stroke:none" />
    <path
       d="m 12,-93 c -4.4091333,0 -8,3.590867 -8,8 v 71 c 0,4.4091333 3.5908667,8 8,8 h 72 c 4.409133,0 8,-3.5908667 8,-8 v -71 c 0,-4.409133 -3.590867,-8 -8,-8 z"
       transform="scale(1,-1)"
       id="path3770"
       style="display:inline;opacity:0.2;fill:url(#linearGradient3772);fill-opacity:1;fill-rule:nonzero;stroke:none" />
    <rect
       width="86"
       height="85"
       rx="7"
       ry="7"
       x="5"
       y="-92"
       transform="scale(1,-1)"
       id="rect3723"
       style="display:inline;opacity:0.3;fill:url(#linearGradient3725);fill-opacity:1;fill-rule:nonzero;stroke:none" />
    <rect
       width="84"
       height="84"
       rx="6"
       ry="6"
       x="6"
       y="-91"
       transform="scale(1,-1)"
       id="rect3716"
       style="display:inline;opacity:0.45;fill:url(#linearGradient3721);fill-opacity:1;fill-rule:nonzero;stroke:none" />
  </g>
  <g
     id="layer1"
     style="display:inline"
     transform="matrix(0.32944406,0,0,0.32944406,0.35140701,0.19251917)">
    <rect
       width="84"
       height="84"
       rx="6"
       ry="6"
       x="6"
       y="6"
       id="rect2419"
       style="fill:url(#radialGradient3197);fill-opacity:1;fill-rule:nonzero;stroke:none" />
    <path
       d="m 6,56 v 28 c 0,3.324 2.676,6 6,6 H 24 V 56 Z"
       id="rect3222"
       style="fill:url(#linearGradient3234);fill-opacity:1;fill-rule:nonzero;stroke:none" />
    <path
       d="m 90,56 v 28 c 0,3.324 -2.676,6 -6,6 H 72 V 56 Z"
       id="path3244"
       style="fill:url(#linearGradient3246);fill-opacity:1;fill-rule:nonzero;stroke:none" />
    <path
       d="m 6,82 v 2 c 0,3.324 2.676,6 6,6 h 72 c 3.324,0 6,-2.676 6,-6 v -2 c 0,3.324 -2.676,6 -6,6 H 12 C 8.676,88 6,85.324 6,82 Z"
       id="rect2412"
       style="opacity:0.15;fill:#000000;fill-opacity:1;fill-rule:nonzero;stroke:none" />
    <path
       d="m 6,78 v 2 c 0,3.324 2.676,6 6,6 h 72 c 3.324,0 6,-2.676 6,-6 v -2 c 0,3.324 -2.676,6 -6,6 H 12 C 8.676,84 6,81.324 6,78 Z"
       id="path3187"
       style="opacity:0.8;fill:#ffffff;fill-opacity:1;fill-rule:nonzero;stroke:none" />
    <path
       d="m 6,76 v 2 c 0,3.324 2.676,6 6,6 h 72 c 3.324,0 6,-2.676 6,-6 v -2 c 0,3.324 -2.676,6 -6,6 H 12 C 8.676,82 6,79.324 6,76 Z"
       id="path3189"
       style="opacity:0.15;fill:#000000;fill-opacity:1;fill-rule:nonzero;stroke:none" />
    <path
       d="m 6,72 v 2 c 0,3.324 2.676,6 6,6 h 72 c 3.324,0 6,-2.676 6,-6 v -2 c 0,3.324 -2.676,6 -6,6 H 12 C 8.676,78 6,75.324 6,72 Z"
       id="path3191"
       style="opacity:0.8;fill:#ffffff;fill-opacity:1;fill-rule:nonzero;stroke:none" />
    <path
       d="m 6,70 v 2 c 0,3.324 2.676,6 6,6 h 72 c 3.324,0 6,-2.676 6,-6 v -2 c 0,3.324 -2.676,6 -6,6 H 12 C 8.676,76 6,73.324 6,70 Z"
       id="path3193"
       style="opacity:0.15;fill:#000000;fill-opacity:1;fill-rule:nonzero;stroke:none" />
    <rect
       width="84"
       height="68"
       rx="6"
       ry="6"
       x="6"
       y="6"
       id="rect3195"
       style="fill:url(#linearGradient3205);fill-opacity:1;fill-rule:nonzero;stroke:none" />
    <path
       d="M 12,6 C 8.676,6 6,8.676 6,12 v 56 c 0,3.324 2.676,6 6,6 h 72 c 3.324,0 6,-2.676 6,-6 V 12 C 90,8.676 87.324,6 84,6 Z m 0,2 h 72 c 2.245802,0 4,1.7541975 4,4 v 56 c 0,2.245802 -1.754198,4 -4,4 H 12 C 9.7541975,72 8,70.245802 8,68 V 12 C 8,9.7541975 9.7541975,8 12,8 Z"
       id="rect3207"
       style="fill:url(#linearGradient3220);fill-opacity:1;fill-rule:nonzero;stroke:none" />
  </g>
  <g
     id="layer3"
     style="display:none"
     transform="translate(0,-64)">
    <rect
       width="72"
       height="72"
       rx="4"
       ry="4"
       x="12"
       y="12"
       id="rect3172"
       style="fill:url(#linearGradient3180);fill-opacity:1;fill-rule:nonzero;stroke:none" />
    <path
       d="m 84,16 c 0,-2.216 -1.784,-4 -4,-4 H 16 c -2.216,0 -4,1.784 -4,4 v 64 c 0,2.216 1.784,4 4,4 h 64 c 2.216,0 4,-1.784 4,-4 z m -1,0 v 64 c 0,1.673848 -1.326152,3 -3,3 H 16 c -1.673848,0 -3,-1.326152 -3,-3 V 16 c 0,-1.673848 1.326152,-3 3,-3 h 64 c 1.673848,0 3,1.326152 3,3 z"
       id="rect3203"
       style="fill:url(#linearGradient3216);fill-opacity:1;fill-rule:nonzero;stroke:none" />
  </g>
</svg>
